!!!SOCIAL_FUNCTION:	uncategorized
!!!PDT:	1932
!!!OTL: Flute Melody No 4
!!!REG: Wisconsin
!!!LANG: Non-Tone
!!!LING_GROUP: Algonquin
**kern
*staff1
=1-
*clefG2
*k[f#c#g#]
*M2/4
[2a/
=2
2a/]
=3||
*M3/4
4ee\
4dd\
4b\
=4||
*M2/4
[2a/
=5
(4.a/]
8aa\)
=6
[2a/
=7
(4.a/]
8aa\)
=8
4a/
4r
=9||
*M3/4
4a/
4aa\
4ff#\
=10
[4ee\
(4.ee\]
8aa\)
=11
4ee\
4dd\
(8.b\L
16dd\Jk)
=12||
*M2/4
[2a/
=13
2a/]
=14||
*M3/4
ddq/
4ee\
4dd\
8.b\L
16dd\Jk
=15||
*M2/4
[2a/
=16
(4.a/]
8aa\)
==
*-
